!!!OTL: VATER UNSER IN DOMINE
!!!ARE: Europa, Mitteleuropa, Deutschland, Mittel - Franken, Thoras
!!!SCT: E1985
!!!YEM: Copyright 1995, estate of Helmut Schaffrath.
**kern
*ICvox
*Ivox
*M4/4
*k[b-e-]
*B-:
{8f
8f
=1
4b-
8cc
8cc
4b-
8a
8g
=2
4f}
{4f
8g
8g
8g
8g
=3
4g
4b-
4.f
8e-
=4
4d}
{4b-
8b-
8dd
8dd
8dd
=5
4dd
4ff
4ee-
4dd
=6
2cc}
{4.dd
8cc
=7
4b-
4dd
2cc
=8
4b-
2r}
==
!!!AGN: geistlich, Gebet, Wallfahrts - Lied
!!!ONB: ESAC (Essen Associative Code) Database: ERK3
!!!AMT: simple quadruple
!!!AIN: vox
!!!EED: Helmut Schaffrath
!!!EEV: 1.0
*-
